X: 14
T: The Wind That Shakes The Barley
R: reel
M: 4/4
L: 1/8
K: Emin
F2|G2F2E2F2|G2F2E2F2|G2G2G2B2|A2F2D2F2|
G2F2G2A2|B2c2B2A2|G2E2F2D2|E2E2F4|
G2F2G2A2|B2c2B2A2|G2F2G2A2|B2E2E2F2|
G2F2G2A2|B2c2B2A2|G2E2F2D2|E2E2E2|]


Tune 116	Setting 25485

